X:41
T:Lord Wellington. RHu.041
T:Nutting Girl,The,aka. RHu.041
S:R.Hughes MS,1823,Whitchurch,Shrops.
N:Note – an entirely different tune from RHu.032.
A:Whitchurch, Shropshire
Z:Neil Brookes 2006
M:2/4
L:1/8
Q:1/4=100
R:Country Dance
K:C
G|ceeg|fedc|cegg|g3e|fadf|egce|fdcB|c3::!
g|gc’c’a|bbgg|gc’c’a|b3g|gc’c’b|agfe|defa|gfed|!
ceeg|fedc|cegg|g3e|fadf|egce|fdcB|c3c:|

